X: 11581
T: J. TURNBULL'S COMPLIMENTS TO J. MANSON.
C: Copyright.
C: Strathspey.--J. Turnbull.
Q: "Slowly."
%R: strathspey
B: W. Hamilton "Universal Tune-Book" Vol. 1 Glasgow 1844 p.158 #1
S: http://imslp.org/wiki/Hamilton's_Universal_Tune-Book_(Various)
Z: 2016 John Chambers <jc:trillian.mit.edu>
M: C
L: 1/16
K: B
% - - - - - - - - - - - - - - - - - - - - - - - - -
B2 |:\
FD3 D3E F3G FB3 | FD3 D3E FB3 d4 |\
cG3 c3d cG3 c3d | e3c edcB Ac3 c2d2 :|\
B3fd3f B3fd2b2 | ge3c3B A2F2 e3c |
B3fd3f B3fd2b2 | agf=e f2c2 dB3B3c |\
dB3f3d _a3fg3f | eG3e3d c3B AF3 |\
BF3 B3d c3e d2b2 | agf=e f2c2 dB3B2d2 |]
% - - - - - - - - - - - - - - - - - - - - - - - - -

%%sep 1 1 500
%%sep 1 1 500

